svgs/thin/stethoscope.svg

<svg xmlns="http://www.w3.org/2000/svg" viewBox="0 0 576 512"><!--! Font Awesome Pro 6.3.0 by @fontawesome - https://fontawesome.com License - https://fontawesome.com/license (Commercial License) Copyright 2023 Fonticons, Inc. --><path d="M544 192c0-35.35-28.65-63.1-64-63.1c-35.35 0-64 28.65-64 63.1c0 32.72 24.64 59.39 56.32 63.23C472.3 255.5 472 255.7 472 256v104c0 75-61 136-136 136s-136-61-136-136v-24c0-.3027-.2891-.4824-.3223-.7754C275.5 331.1 336 268.8 336 191.1V55.06c0-17.25-11-32.5-27.34-37.94L258.5 .4049c-4.125-1.375-8.719 .875-10.12 5.063S249.3 14.19 253.5 15.59l50.13 16.72C313.4 35.56 320 44.72 320 55.06v136.9c0 70.59-57.41 127.1-128 127.1S64 262.6 64 192V55.06c0-10.34 6.594-19.5 16.41-22.75l50.13-16.72C134.7 14.19 137 9.655 135.6 5.467s-5.906-6.438-10.12-5.063L75.34 17.12C59 22.56 48 37.81 48 55.06v136.9c0 76.78 60.55 139.1 136.3 143.2C184.3 335.5 184 335.7 184 336v24c0 83.81 68.19 151.1 152 151.1s152-68.19 152-151.1V256c0-.3027-.2891-.4805-.3223-.7734C519.4 251.4 544 224.7 544 192zM480 239.1c-26.47 0-48-21.53-48-48s21.53-48 48-48s48 21.53 48 48S506.5 239.1 480 239.1z"/></svg>

<svg xmlns="http://www.w3.org/2000/svg" viewBox="0 0 576 512"><!-- Font Awesome Pro 6.0.0-alpha2 by @fontawesome - https://fontawesome.com License - https://fontawesome.com/license (Commercial License) --><path d="M544 192C544 156.654 515.348 127.999 480 127.999C444.654 127.999 416 156.654 416 192C416 224.715 440.643 251.391 472.322 255.227C472.289 255.52 472 255.697 472 256V360.001C472 435.001 411 496.001 336 496.001S200 435.001 200 360.001V336C200 335.698 199.711 335.518 199.678 335.225C275.453 331.143 336 268.777 336 192V55.061C336 37.811 325 22.561 308.656 17.124L258.531 0.405C254.406 -0.97 249.813 1.28 248.406 5.467S249.281 14.186 253.469 15.592L303.594 32.311C313.406 35.561 320 44.718 320 55.061V192C320 262.594 262.594 320 192 320S64 262.594 64 192V55.061C64 44.718 70.594 35.561 80.406 32.311L130.531 15.592C134.719 14.186 137 9.655 135.594 5.467S129.688 -0.97 125.469 0.405L75.344 17.124C59 22.561 48 37.811 48 55.061V192C48 268.777 108.547 331.143 184.322 335.225C184.289 335.518 184 335.698 184 336V360.001C184 443.814 252.188 512.001 336 512.001S488 443.814 488 360.001V256C488 255.697 487.711 255.52 487.678 255.227C519.359 251.391 544 224.715 544 192ZM480 240C453.533 240 432 218.467 432 192S453.533 143.999 480 143.999S528 165.533 528 192S506.467 240 480 240Z"/></svg>
